src/lib/packages/icons/src/assets/filled/light-emergency-on.svg

<svg width="24" height="24" viewBox="0 0 24 24" fill="none" xmlns="http://www.w3.org/2000/svg">
<path d="M5.26003 17.2151C5.26003 17.3821 5.38993 17.5159 5.55593 17.5149C7.34293 17.5009 16.6561 17.5009 18.4431 17.5149C18.6101 17.5159 18.739 17.3821 18.739 17.2151V13.7C18.739 8.88995 15.849 6 11.999 6C8.14905 6 5.25906 8.88995 5.25906 13.7V17.2151H5.26003ZM12 8.66992C12.41 8.66992 12.75 8.99992 12.75 9.41992C12.75 9.82992 12.41 10.1699 12 10.1699C10.66 10.1699 9.56999 11.17 9.46999 12.5C9.43999 12.9 9.10999 13.1899 8.71999 13.1899H8.65994C8.24994 13.1599 7.93999 12.7999 7.96999 12.3899C8.13999 10.2999 9.90002 8.66992 12 8.66992ZM20 20.499V22H4.00002V20.5C4.00002 19.672 4.67202 19 5.50002 19H18.501C19.329 19 20 19.671 20 20.499ZM11.25 3.5V2C11.25 1.586 11.586 1.25 12 1.25C12.414 1.25 12.75 1.586 12.75 2V3.5C12.75 3.914 12.414 4.25 12 4.25C11.586 4.25 11.25 3.914 11.25 3.5ZM20.5301 4.53003L19.0301 6.03003C18.8841 6.17603 18.692 6.25 18.5 6.25C18.308 6.25 18.116 6.17703 17.97 6.03003C17.677 5.73703 17.677 5.26199 17.97 4.96899L19.47 3.46899C19.763 3.17599 20.238 3.17599 20.531 3.46899C20.824 3.76199 20.8231 4.23703 20.5301 4.53003ZM4.96999 6.03003L3.46999 4.53003C3.17699 4.23703 3.17699 3.76199 3.46999 3.46899C3.76299 3.17599 4.23803 3.17599 4.53103 3.46899L6.03103 4.96899C6.32403 5.26199 6.32403 5.73703 6.03103 6.03003C5.88503 6.17603 5.693 6.25 5.501 6.25C5.309 6.25 5.11599 6.17703 4.96999 6.03003Z" fill="currentColor"/>
</svg>

<svg xmlns="http://www.w3.org/2000/svg" width="24" height="24" fill="none"><path fill="currentColor" d="M5.26 17.215c0 .167.13.3.296.3 1.787-.014 11.1-.014 12.887 0a.294.294 0 0 0 .296-.3V13.7c0-4.81-2.89-7.7-6.74-7.7s-6.74 2.89-6.74 7.7v3.515h.001ZM12 8.67a.749.749 0 1 1 0 1.5c-1.34 0-2.43 1-2.53 2.33-.03.4-.36.69-.75.69h-.06a.749.749 0 0 1-.69-.8A4.058 4.058 0 0 1 12 8.67Zm8 11.829V22H4v-1.5A1.5 1.5 0 0 1 5.5 19h13.001c.828 0 1.499.671 1.499 1.499ZM11.25 3.5V2a.75.75 0 0 1 1.5 0v1.5a.75.75 0 0 1-1.5 0Zm9.28 1.03-1.5 1.5a.748.748 0 0 1-1.06 0 .75.75 0 0 1 0-1.061l1.5-1.5a.75.75 0 1 1 1.06 1.061ZM4.97 6.03l-1.5-1.5a.75.75 0 1 1 1.061-1.061l1.5 1.5A.75.75 0 1 1 4.97 6.03Z"/></svg>
